X: 1
T: The Goodnatured Man
R: hornpipe
M: 4/4
L: 1/8
K: Gmaj
(3def|:g2 bg d2 gd|BcdB G2 AB|cded cBAG|
|(3FGF EF D2 ef|g2 bg d2 gd|BcdB GBAB|
cedc BGAF||1 DGGF G2 (3def:|2 DGGF GABc||
|:dcdB gfgd|e^dec a^gae|~f3 e dfaf|
gage de (3fed|g2 bg d2 gd|BcdB GBAB|
cedc BAGF|1 AGGF GABc:|2 AGGF G2 (3def||


Tune 312	Setting 13081

